icons/image-16.svg

<svg xmlns="http://www.w3.org/2000/svg" width="16" height="16" viewBox="0 0 16 16"><path d="M16 13.25A1.75 1.75 0 0 1 14.25 15H1.75A1.75 1.75 0 0 1 0 13.25V2.75C0 1.784.784 1 1.75 1h12.5c.966 0 1.75.784 1.75 1.75ZM1.75 2.5a.25.25 0 0 0-.25.25v10.5c0 .138.112.25.25.25h.94l.03-.03 6.077-6.078a1.75 1.75 0 0 1 2.412-.06L14.5 10.31V2.75a.25.25 0 0 0-.25-.25Zm12.5 11a.25.25 0 0 0 .25-.25v-.917l-4.298-3.889a.25.25 0 0 0-.344.009L4.81 13.5ZM7 6a2 2 0 1 1-3.999.001A2 2 0 0 1 7 6ZM5.5 6a.5.5 0 1 0-1 0 .5.5 0 0 0 1 0Z"/></svg>

<?xml version="1.0" encoding="utf-8"?>
<svg xmlns="http://www.w3.org/2000/svg" width="16" height="16" viewBox="0 0 16 16">
  <path d="M 16 13.25 C 16 14.216 15.216 15 14.25 15 L 1.75 15 C 0.784 15 0 14.216 0 13.25 L 0 2.75 C 0 1.784 0.784 1 1.75 1 L 14.25 1 C 15.216 1 16 1.784 16 2.75 L 16 13.25 Z M 1.75 2.5 C 1.612 2.5 1.5 2.612 1.5 2.75 L 1.5 13.25 C 1.5 13.388 1.612 13.5 1.75 13.5 L 1.69 13.5 L 1.72 13.47 L 8.797 7.392 C 9.457 6.732 10.517 6.706 11.209 7.332 L 14.5 10.31 L 14.5 2.75 C 14.5 2.612 14.388 2.5 14.25 2.5 L 1.75 2.5 Z M 14.25 13.5 C 14.388 13.5 14.5 13.388 14.5 13.25 L 14.5 12.333 L 10.202 8.444 C 10.103 8.355 9.952 8.359 9.858 8.453 L 3.81 13.5 L 14.25 13.5 Z M 7 6 C 7.035 7.539 5.39 8.539 4.04 7.799 C 3.385 7.441 2.984 6.747 3.001 6.001 C 3.035 4.462 4.723 3.537 6.039 4.336 C 6.622 4.69 6.985 5.318 7 6 Z M 5.5 6 C 5.5 5.615 5.083 5.375 4.75 5.567 C 4.595 5.656 4.5 5.821 4.5 6 C 4.5 6.385 4.917 6.625 5.25 6.433 C 5.405 6.344 5.5 6.179 5.5 6 Z"/>
</svg>
